X: 130
T: A Change In The Weather
R: jig
M: 6/8
K: Dmajor
fdd cdd|Bdd ABA|fdd Bcd|efe ede|
fdd cdd|Bdd efg|fdd cde|1 ded d3:|2 dAF DEF||
EEE FFF|GGG FED|EEE FED|EEE EFG|
EEE EFG|AAA GFE|DFA ddd|1 BAF DEF:|2 BAF D3||

